gtk-icons/Papirus-GTK/16x16/actions/format-text-uppercase.svg

<?xml version="1.0" encoding="UTF-8" standalone="no"?>
<!-- Created with Inkscape (http://www.inkscape.org/) -->

<svg
   xmlns:dc="http://purl.org/dc/elements/1.1/"
   xmlns:cc="http://creativecommons.org/ns#"
   xmlns:rdf="http://www.w3.org/1999/02/22-rdf-syntax-ns#"
   xmlns:svg="http://www.w3.org/2000/svg"
   xmlns="http://www.w3.org/2000/svg"
   xmlns:sodipodi="http://sodipodi.sourceforge.net/DTD/sodipodi-0.dtd"
   xmlns:inkscape="http://www.inkscape.org/namespaces/inkscape"
   width="16"
   height="16"
   id="svg3049"
   version="1.1"
   inkscape:version="0.91 r13725"
   sodipodi:docname="format-text-uppercase.svg"
   inkscape:export-filename="/home/uri/.kde/share/icons/NITRUX-KDE/16x16/actions/view-right-new.png"
   inkscape:export-xdpi="30"
   inkscape:export-ydpi="30">
  <defs
     id="defs3051">
    <style
       type="text/css"
       id="current-color-scheme">
      .ColorScheme-Text {
        color:#4d4d4d;
      }
      .ColorScheme-Background {
        color:#eff0f1;
      }
      .ColorScheme-Highlight {
        color:#3daee9;
      }
      .ColorScheme-ViewText {
        color:#31363b;
      }
      .ColorScheme-ViewBackground {
        color:#fcfcfc;
      }
      .ColorScheme-ViewHover {
        color:#93cee9;
      }
      .ColorScheme-ViewFocus{
        color:#3daee9;
      }
      .ColorScheme-ButtonText {
        color:#31363b;
      }
      .ColorScheme-ButtonBackground {
        color:#eff0f1;
      }
      .ColorScheme-ButtonHover {
        color:#93cee9;
      }
      .ColorScheme-ButtonFocus{
        color:#3daee9;
      }
      </style>
  </defs>
  <sodipodi:namedview
     id="base"
     pagecolor="#ffffff"
     bordercolor="#666666"
     borderopacity="1.0"
     inkscape:pageopacity="0.0"
     inkscape:pageshadow="2"
     inkscape:zoom="18.749991"
     inkscape:cx="-3.349561"
     inkscape:cy="2.0537769"
     inkscape:document-units="px"
     inkscape:current-layer="layer1"
     showgrid="false"
     fit-margin-top="0"
     fit-margin-left="0"
     fit-margin-right="0"
     fit-margin-bottom="0"
     inkscape:window-width="1600"
     inkscape:window-height="847"
     inkscape:window-x="0"
     inkscape:window-y="30"
     inkscape:window-maximized="1"
     inkscape:showpageshadow="false"
     borderlayer="true"
     inkscape:snap-bbox="true"
     inkscape:snap-global="true"
     showguides="false">
    <inkscape:grid
       type="xygrid"
       id="grid4085" />
    <sodipodi:guide
       position="2.0000044,14.00003"
       orientation="12,0"
       id="guide4075" />
    <sodipodi:guide
       position="2.0000044,2.0000296"
       orientation="4.2285741e-06,1"
       id="guide4077" />
    <sodipodi:guide
       position="14,9"
       orientation="-12,0"
       id="guide4079" />
    <sodipodi:guide
       position="14,14"
       orientation="0,-12"
       id="guide4081" />
  </sodipodi:namedview>
  <metadata
     id="metadata3054">
    <rdf:RDF>
      <cc:Work
         rdf:about="">
        <dc:format>image/svg+xml</dc:format>
        <dc:type
           rdf:resource="http://purl.org/dc/dcmitype/StillImage" />
        <dc:title />
      </cc:Work>
    </rdf:RDF>
  </metadata>
  <g
     inkscape:label="Capa 1"
     inkscape:groupmode="layer"
     id="layer1"
     transform="translate(-421.71429,-531.79074)">
    <rect
       style="fill:#4d4d4d;fill-opacity:1;stroke:none"
       id="rect4035"
       width="0"
       height="10.999983"
       x="417.42859"
       y="534.79071" />
    <rect
       style="fill:#4d4d4d;fill-opacity:1;stroke:none"
       id="rect4035-2"
       width="0"
       height="10.999983"
       x="411.28833"
       y="535.0567" />
    <rect
       style="fill:#4d4d4d;fill-opacity:1;stroke:none"
       id="rect4035-5"
       width="0"
       height="10.999983"
       x="429.3291"
       y="533.00537" />
    <rect
       style="fill:#4d4d4d;fill-opacity:1;stroke:none"
       id="rect4035-8"
       width="0"
       height="10.999983"
       x="411.28833"
       y="535.0567" />
    <rect
       style="fill:#4d4d4d;fill-opacity:1;stroke:none"
       id="rect4035-59"
       width="0"
       height="10.999983"
       x="411.28833"
       y="535.0567" />
    <text
       sodipodi:linespacing="125%"
       id="text3781"
       y="547.81396"
       x="426.7243"
       style="font-style:normal;font-weight:normal;font-size:9px;line-height:125%;font-family:Sans;letter-spacing:0px;word-spacing:0px;fill:#4d4d4d;fill-opacity:1;stroke:none"
       xml:space="preserve"><tspan
         id="tspan3783"
         sodipodi:role="line"
         x="426.7243"
         y="547.81396" /></text>
    <text
       sodipodi:linespacing="125%"
       id="text3781-8"
       y="541.95062"
       x="427.461"
       style="font-style:normal;font-weight:normal;font-size:9px;line-height:125%;font-family:Sans;letter-spacing:0px;word-spacing:0px;fill:#4d4d4d;fill-opacity:1;stroke:none"
       xml:space="preserve"><tspan
         id="tspan3783-1"
         sodipodi:role="line"
         x="427.461"
         y="541.95062" /></text>
    <text
       sodipodi:linespacing="125%"
       id="text3781-4"
       y="548.81396"
       x="420.7243"
       style="font-style:normal;font-weight:normal;font-size:9px;line-height:125%;font-family:Sans;letter-spacing:0px;word-spacing:0px;fill:#4d4d4d;fill-opacity:1;stroke:none"
       xml:space="preserve"><tspan
         id="tspan3783-13"
         sodipodi:role="line"
         x="420.7243"
         y="548.81396" /></text>
    <rect
       style="fill:#4d4d4d;fill-opacity:1;stroke:none"
       id="rect4035-9"
       width="0"
       height="10.999983"
       x="411.28833"
       y="535.0567" />
    <rect
       style="fill:#4d4d4d;fill-opacity:1;stroke:none"
       id="rect4035-5-7"
       width="0"
       height="10.999983"
       x="429.3291"
       y="533.00537" />
    <rect
       style="fill:#4d4d4d;fill-opacity:1;stroke:none"
       id="rect4035-9-0"
       width="0"
       height="10.999983"
       x="391.28833"
       y="535.0567" />
    <rect
       style="fill:#4d4d4d;fill-opacity:1;stroke:none"
       id="rect4035-5-7-5"
       width="0"
       height="10.999983"
       x="409.3291"
       y="533.00537" />
    <rect
       style="fill:#4d4d4d;fill-opacity:1;stroke:none"
       id="rect4035-90"
       width="0"
       height="10.999983"
       x="409.42859"
       y="512.79071" />
    <path
       style="fill:#000000;fill-opacity:1;stroke:none;opacity:0.5"
       d="M 11.214844 2 L 8.7148438 5 L 13.714844 5 L 11.214844 2 z M 3.828125 6 L 1 14 L 2.1425781 14 L 3.1171875 11.714844 L 5.8398438 11.714844 L 6.7148438 14 L 7.8574219 14 L 5.265625 6 L 3.828125 6 z M 8.7148438 6 L 8.7148438 14 L 9.2851562 14 L 9.8574219 14 L 12.714844 14 A 2.2857143 2.2857143 0 0 0 15 11.714844 A 2.2857143 2.2857143 0 0 0 13.466797 9.5605469 A 2.2857143 2.2857143 0 0 0 13.857422 8.2851562 A 2.2857143 2.2857143 0 0 0 11.572266 6 L 9.8574219 6 L 9.2851562 6 L 8.7148438 6 z M 9.8574219 7.1425781 L 11.572266 7.1425781 A 1.1428571 1.1428571 0 0 1 12.714844 8.2851562 A 1.1428571 1.1428571 0 0 1 11.572266 9.4277344 L 9.8574219 9.4277344 L 9.8574219 7.1425781 z M 4.546875 7.2402344 L 5.6191406 10.572266 L 3.3632812 10.572266 L 4.546875 7.2402344 z M 9.8574219 10.572266 L 12.714844 10.572266 A 1.1428571 1.1428571 0 0 1 13.857422 11.714844 A 1.1428571 1.1428571 0 0 1 12.714844 12.857422 L 9.8574219 12.857422 L 9.8574219 10.572266 z "
       transform="translate(421.71429,531.79074)"
       id="path5641" />
  </g>
</svg>

<?xml version="1.0" encoding="UTF-8" standalone="no"?>
<!-- Created with Inkscape (http://www.inkscape.org/) -->
<svg id="svg3049" xmlns:rdf="http://www.w3.org/1999/02/22-rdf-syntax-ns#" xmlns="http://www.w3.org/2000/svg" height="16" width="16" version="1.1" xmlns:cc="http://creativecommons.org/ns#" xmlns:dc="http://purl.org/dc/elements/1.1/">
 <defs id="defs3051">
  <style id="current-color-scheme" type="text/css">.ColorScheme-Text {
        color:#4d4d4d;
      }
      .ColorScheme-Background {
        color:#eff0f1;
      }
      .ColorScheme-Highlight {
        color:#3daee9;
      }
      .ColorScheme-ViewText {
        color:#31363b;
      }
      .ColorScheme-ViewBackground {
        color:#fcfcfc;
      }
      .ColorScheme-ViewHover {
        color:#93cee9;
      }
      .ColorScheme-ViewFocus{
        color:#3daee9;
      }
      .ColorScheme-ButtonText {
        color:#31363b;
      }
      .ColorScheme-ButtonBackground {
        color:#eff0f1;
      }
      .ColorScheme-ButtonHover {
        color:#93cee9;
      }
      .ColorScheme-ButtonFocus{
        color:#3daee9;
      }</style>
 </defs>
 <metadata id="metadata3054">
  <rdf:RDF>
   <cc:Work rdf:about="">
    <dc:format>image/svg+xml</dc:format>
    <dc:type rdf:resource="http://purl.org/dc/dcmitype/StillImage"/>
    <dc:title/>
   </cc:Work>
  </rdf:RDF>
 </metadata>
 <g id="layer1" transform="translate(-421.71 -531.79)">
  <rect id="rect4035" height="11" width="0" y="534.79" x="417.43" fill="#4d4d4d"/>
  <rect id="rect4035-2" height="11" width="0" y="535.06" x="411.29" fill="#4d4d4d"/>
  <rect id="rect4035-5" height="11" width="0" y="533.01" x="429.33" fill="#4d4d4d"/>
  <rect id="rect4035-8" height="11" width="0" y="535.06" x="411.29" fill="#4d4d4d"/>
  <rect id="rect4035-59" height="11" width="0" y="535.06" x="411.29" fill="#4d4d4d"/>
  <text id="text3781" style="word-spacing:0px;letter-spacing:0px" line-height="125%" font-size="9px" y="547.81396" x="426.7243" font-family="Sans" xml:space="preserve" fill="#4d4d4d"><tspan id="tspan3783" x="426.7243" y="547.81396"/></text>
  <text id="text3781-8" style="word-spacing:0px;letter-spacing:0px" line-height="125%" font-size="9px" y="541.95062" x="427.461" font-family="Sans" xml:space="preserve" fill="#4d4d4d"><tspan id="tspan3783-1" x="427.461" y="541.95062"/></text>
  <text id="text3781-4" style="word-spacing:0px;letter-spacing:0px" line-height="125%" font-size="9px" y="548.81396" x="420.7243" font-family="Sans" xml:space="preserve" fill="#4d4d4d"><tspan id="tspan3783-13" x="420.7243" y="548.81396"/></text>
  <rect id="rect4035-9" height="11" width="0" y="535.06" x="411.29" fill="#4d4d4d"/>
  <rect id="rect4035-5-7" height="11" width="0" y="533.01" x="429.33" fill="#4d4d4d"/>
  <rect id="rect4035-9-0" height="11" width="0" y="535.06" x="391.29" fill="#4d4d4d"/>
  <rect id="rect4035-5-7-5" height="11" width="0" y="533.01" x="409.33" fill="#4d4d4d"/>
  <rect id="rect4035-90" height="11" width="0" y="512.79" x="409.43" fill="#4d4d4d"/>
  <path id="path5641" opacity=".5" d="m11.215 2l-2.5002 3h5.0002l-2.5-3zm-7.3869 4l-2.8281 8h1.1426l0.9746-2.285h2.7226l0.875 2.285h1.1426l-2.5918-8h-1.4375zm4.8867 0v8h0.5704 0.5722 2.8576a2.2857 2.2857 0 0 0 2.285 -2.285 2.2857 2.2857 0 0 0 -1.533 -2.1545 2.2857 2.2857 0 0 0 0.39 -1.2753 2.2857 2.2857 0 0 0 -2.285 -2.2852h-1.7146-0.5722-0.5704zm1.1426 1.1426h1.7146a1.1429 1.1429 0 0 1 1.143 1.1426 1.1429 1.1429 0 0 1 -1.143 1.1425h-1.7146v-2.2851zm-5.3105 0.0976l1.0722 3.3318h-2.2558l1.1836-3.3318zm5.3105 3.3318h2.8576a1.1429 1.1429 0 0 1 1.142 1.143 1.1429 1.1429 0 0 1 -1.142 1.142h-2.8576v-2.285z" transform="translate(421.71 531.79)"/>
 </g>
</svg>
